X:7415
T:Huntsman's Chorus,1st part. JNu.13
M:2/4
L:1/8
Q:150
S:James Nuttall MS,c1830,Rossendale,East Lancs.
R:Air
O:England
A:East Lancashire
N:at  make accent,at X there is a mysterious SIGN..CGP
Z:vmp.Manchester Morris Men
K:G
"primo"D|G2 G/A/B/c/|d2BB|.A.d.A.d|B/c/B/A/ GD|G2 G/A/B/c/|"crs"d-BB2|Ad
fe|d
